!!! OTL: Berkowitz338
!!! Chapter: 1
!!! Section: III
!!! Page: 82
!!! Mode: 
!!! Encoder: DJB
**kern
*staff1
*I"Piano
=1-
*clefF4
*k[f#c#g#d#a#]
*B:
*M3/4
8D#\L
8E\J
4F#\
4FF#/
=2
8C#/L
8D#/J
4E\
4FF#/
=3
8BB/L
8C#/J
4D#\
4FF#/
=4
2.C#/
=5
8E\L
8F#\J
4G#\
4GG#/
=6
8D#\L
8E\J
4F#\
4GG#/
=7
8E\L
8D#\J
4C#/
4BB#/
=8
2C#/
4D#\
=9
4E\
4D#\
4C#/
=10
!!linebreak:original
4BB#/
4D#\
4GG#/
=11
8C#/L
8BB/J
4AAn/
4FF#/
=12
2GG#/
4AA#/
=13
4BB/
4D#\
4G#\
=14
4E\
4C#/
4F#\
=15
8D#\L
8F#\J
8E\L
8D#\J
8C#/L
8D#/J
=16
2.BB/
==
*-
